; HEADER_BLOCK_START
; generated by OrcaSlicer 2.4.0 on 2026-07-14 at 23:02:04
; total layer number: 10
; filament_density: 1.24,1.24,1.24,1.24
; filament_diameter: 1.75,1.75,1.75,1.75
; max_z_height: 2.00
; filament: 1
; HEADER_BLOCK_END

; THUMBNAIL_BLOCK_START

;
; THUMBNAIL_BLOCK_END

; THUMBNAIL_BLOCK_START

;
; THUMBNAIL_BLOCK_END

; external perimeters extrusion width = 0.42mm
; perimeters extrusion width = 0.46mm
; infill extrusion width = 0.56mm
; solid infill extrusion width = 0.56mm
; top infill extrusion width = 0.40mm
; first layer extrusion width = 0.52mm

; external perimeters extrusion width = 0.42mm
; perimeters extrusion width = 0.46mm
; infill extrusion width = 0.56mm
; solid infill extrusion width = 0.56mm
; top infill extrusion width = 0.40mm
; first layer extrusion width = 0.52mm

; external perimeters extrusion width = 0.42mm
; perimeters extrusion width = 0.46mm
; infill extrusion width = 0.56mm
; solid infill extrusion width = 0.56mm
; top infill extrusion width = 0.40mm
; first layer extrusion width = 0.52mm

; external perimeters extrusion width = 0.42mm
; perimeters extrusion width = 0.46mm
; infill extrusion width = 0.56mm
; solid infill extrusion width = 0.56mm
; top infill extrusion width = 0.40mm
; first layer extrusion width = 0.52mm

; EXECUTABLE_BLOCK_START
EXCLUDE_OBJECT_DEFINE NAME=Dock_Isolator.stl_id_0_copy_0 CENTER=166.797,157.273 POLYGON=[[159.398,157.273],[159.412,156.831],[159.451,156.39],[159.517,155.952],[159.609,155.519],[159.727,155.092],[159.87,154.673],[160.038,154.263],[160.23,153.864],[160.446,153.478],[160.684,153.105],[160.944,152.746],[161.226,152.404],[161.527,152.08],[161.847,151.774],[162.185,151.488],[162.539,151.222],[162.908,150.978],[163.292,150.757],[163.688,150.559],[164.095,150.385],[164.512,150.235],[164.937,150.111],[165.368,150.013],[165.805,149.94],[166.245,149.894],[166.688,149.874],[167.13,149.881],[167.572,149.914],[168.011,149.973],[168.445,150.059],[168.874,150.17],[169.295,150.307],[169.707,150.469],[170.108,150.655],[170.498,150.865],[170.875,151.097],[171.237,151.352],[171.583,151.628],[171.912,151.924],[172.223,152.24],[172.514,152.573],[172.785,152.924],[173.034,153.289],[173.262,153.669],[173.466,154.062],[173.646,154.467],[173.801,154.881],[173.932,155.304],[174.037,155.735],[174.116,156.17],[174.169,156.61],[174.195,157.052],[174.195,157.495],[174.169,157.937],[174.116,158.376],[174.037,158.812],[173.932,159.242],[173.801,159.665],[173.646,160.079],[173.466,160.484],[173.262,160.877],[173.034,161.257],[172.785,161.623],[172.514,161.973],[172.223,162.306],[171.912,162.622],[171.583,162.918],[171.237,163.194],[170.875,163.449],[170.498,163.682],[170.108,163.892],[169.707,164.078],[169.295,164.239],[168.874,164.376],[168.445,164.488],[168.011,164.573],[167.572,164.633],[167.13,164.666],[166.688,164.672],[166.245,164.652],[165.805,164.606],[165.368,164.534],[164.937,164.435],[164.512,164.311],[164.095,164.162],[163.688,163.988],[163.292,163.79],[162.908,163.568],[162.539,163.324],[162.185,163.059],[161.847,162.772],[161.527,162.466],[161.226,162.142],[160.944,161.8],[160.684,161.442],[160.446,161.069],[160.23,160.682],[160.038,160.283],[159.87,159.873],[159.727,159.454],[159.609,159.028],[159.517,158.594],[159.451,158.157],[159.412,157.716],[159.398,157.273],[159.398,157.273]]
EXCLUDE_OBJECT_DEFINE NAME=Dock_Isolator.stl_id_1_copy_0 CENTER=150,157.273 POLYGON=[[142.602,157.273],[142.615,156.831],[142.655,156.39],[142.721,155.952],[142.813,155.519],[142.93,155.092],[143.074,154.673],[143.241,154.263],[143.434,153.864],[143.649,153.478],[143.887,153.105],[144.148,152.746],[144.429,152.404],[144.73,152.08],[145.05,151.774],[145.388,151.488],[145.742,151.222],[146.112,150.978],[146.495,150.757],[146.891,150.559],[147.298,150.385],[147.715,150.235],[148.14,150.111],[148.572,150.013],[149.008,149.94],[149.449,149.894],[149.891,149.874],[150.334,149.881],[150.775,149.914],[151.214,149.973],[151.648,150.059],[152.077,150.17],[152.498,150.307],[152.91,150.469],[153.312,150.655],[153.702,150.865],[154.078,151.097],[154.44,151.352],[154.786,151.628],[155.116,151.924],[155.426,152.24],[155.718,152.573],[155.988,152.924],[156.238,153.289],[156.465,153.669],[156.669,154.062],[156.849,154.467],[157.004,154.881],[157.135,155.305],[157.24,155.735],[157.319,156.17],[157.372,156.61],[157.398,157.052],[157.398,157.495],[157.372,157.937],[157.319,158.376],[157.24,158.812],[157.135,159.242],[157.004,159.665],[156.849,160.079],[156.669,160.484],[156.465,160.877],[156.238,161.257],[155.988,161.623],[155.718,161.973],[155.426,162.306],[155.116,162.622],[154.786,162.918],[154.44,163.194],[154.078,163.449],[153.702,163.682],[153.312,163.892],[152.91,164.078],[152.498,164.239],[152.077,164.376],[151.648,164.488],[151.214,164.573],[150.775,164.633],[150.334,164.666],[149.891,164.672],[149.449,164.652],[149.008,164.606],[148.572,164.534],[148.14,164.435],[147.715,164.311],[147.298,164.162],[146.891,163.988],[146.495,163.79],[146.112,163.568],[145.742,163.324],[145.388,163.059],[145.05,162.772],[144.73,162.466],[144.429,162.142],[144.148,161.8],[143.887,161.442],[143.649,161.069],[143.434,160.682],[143.241,160.283],[143.074,159.873],[142.93,159.454],[142.813,159.028],[142.721,158.595],[142.655,158.157],[142.615,157.716],[142.602,157.273],[142.602,157.273]]
EXCLUDE_OBJECT_DEFINE NAME=Dock_Isolator.stl_id_2_copy_0 CENTER=133.203,157.273 POLYGON=[[125.805,157.273],[125.818,156.831],[125.858,156.39],[125.924,155.952],[126.016,155.519],[126.134,155.092],[126.277,154.673],[126.445,154.263],[126.637,153.864],[126.852,153.478],[127.091,153.105],[127.351,152.746],[127.632,152.404],[127.933,152.08],[128.253,151.774],[128.591,151.488],[128.945,151.222],[129.315,150.978],[129.698,150.757],[130.094,150.559],[130.501,150.385],[130.918,150.235],[131.343,150.111],[131.775,150.013],[132.212,149.94],[132.652,149.894],[133.094,149.874],[133.537,149.881],[133.978,149.914],[134.417,149.973],[134.852,150.059],[135.28,150.17],[135.701,150.307],[136.113,150.469],[136.515,150.655],[136.905,150.865],[137.282,151.097],[137.644,151.352],[137.99,151.628],[138.319,151.924],[138.63,152.24],[138.921,152.573],[139.192,152.924],[139.441,153.289],[139.668,153.669],[139.872,154.062],[140.052,154.467],[140.208,154.881],[140.338,155.305],[140.443,155.735],[140.522,156.17],[140.575,156.61],[140.602,157.052],[140.602,157.495],[140.575,157.937],[140.522,158.376],[140.443,158.812],[140.338,159.242],[140.208,159.665],[140.052,160.079],[139.872,160.484],[139.668,160.877],[139.441,161.257],[139.192,161.623],[138.921,161.973],[138.63,162.306],[138.319,162.622],[137.99,162.918],[137.644,163.194],[137.282,163.449],[136.905,163.682],[136.515,163.892],[136.113,164.078],[135.701,164.239],[135.28,164.376],[134.852,164.488],[134.417,164.573],[133.978,164.633],[133.537,164.666],[133.094,164.672],[132.652,164.652],[132.212,164.606],[131.775,164.534],[131.343,164.435],[130.918,164.311],[130.501,164.162],[130.094,163.988],[129.698,163.79],[129.315,163.568],[128.945,163.324],[128.591,163.059],[128.253,162.772],[127.933,162.466],[127.632,162.142],[127.351,161.8],[127.091,161.442],[126.852,161.069],[126.637,160.682],[126.445,160.283],[126.277,159.873],[126.134,159.454],[126.016,159.028],[125.924,158.595],[125.858,158.157],[125.818,157.716],[125.805,157.273],[125.805,157.273]]
EXCLUDE_OBJECT_DEFINE NAME=Dock_Isolator.stl_id_3_copy_0 CENTER=141.602,142.727 POLYGON=[[134.203,142.727],[134.217,142.284],[134.256,141.843],[134.322,141.406],[134.414,140.972],[134.532,140.546],[134.675,140.127],[134.843,139.717],[135.035,139.318],[135.251,138.931],[135.489,138.558],[135.749,138.2],[136.031,137.858],[136.332,137.534],[136.652,137.228],[136.989,136.941],[137.344,136.676],[137.713,136.432],[138.097,136.21],[138.493,136.012],[138.9,135.838],[139.317,135.689],[139.742,135.565],[140.173,135.466],[140.61,135.394],[141.05,135.348],[141.493,135.328],[141.935,135.334],[142.377,135.367],[142.816,135.427],[143.25,135.512],[143.678,135.624],[144.1,135.761],[144.512,135.922],[144.913,136.108],[145.303,136.318],[145.68,136.551],[146.042,136.806],[146.388,137.082],[146.717,137.378],[147.028,137.694],[147.319,138.027],[147.59,138.377],[147.839,138.743],[148.067,139.123],[148.27,139.516],[148.451,139.921],[148.606,140.335],[148.737,140.758],[148.842,141.188],[148.921,141.624],[148.974,142.063],[149,142.505],[149,142.948],[148.974,143.39],[148.921,143.83],[148.842,144.265],[148.737,144.695],[148.606,145.119],[148.451,145.533],[148.27,145.938],[148.067,146.331],[147.839,146.711],[147.59,147.076],[147.319,147.427],[147.028,147.76],[146.717,148.076],[146.388,148.372],[146.042,148.648],[145.68,148.903],[145.303,149.135],[144.913,149.345],[144.512,149.531],[144.1,149.693],[143.678,149.83],[143.25,149.941],[142.816,150.027],[142.377,150.086],[141.935,150.119],[141.493,150.126],[141.05,150.106],[140.61,150.06],[140.173,149.987],[139.742,149.889],[139.317,149.765],[138.9,149.615],[138.493,149.441],[138.097,149.243],[137.713,149.022],[137.344,148.778],[136.989,148.512],[136.652,148.226],[136.332,147.92],[136.031,147.596],[135.749,147.254],[135.489,146.895],[135.251,146.522],[135.035,146.136],[134.843,145.737],[134.675,145.327],[134.532,144.908],[134.414,144.481],[134.322,144.048],[134.256,143.61],[134.217,143.169],[134.203,142.727],[134.203,142.727]]
M73 P0 R4
;TYPE:Custom
M104 S0 T0
M104 S0 T1
M104 S0 T2
M104 S0 T3
M140 S0
TOOL_CHECK INITIAL_TOOL=0
PRINT_START BED_TEMP=60 EXTRUDER_TEMP=230 CHAMBER_TEMP=0 FILAMENT_TYPE=PLA NOZZLE_DIAMETER=0.4 INITIAL_TOOL=0 T0_TEMP=230   
G90
G21
M83 ; use relative distances for extrusion
; Set pressure advance per-filament for different nozzle sizes
;SET_PRESSURE_ADVANCE ADVANCE=0.035
;
SET_PRESSURE_ADVANCE ADVANCE=0.025; Override pressure advance value
T0
;LAYER_CHANGE
;Z:0.2
;HEIGHT:0.2
G1 E-.6 F2700
M117 > Layer 1/10
;AFTER_LAYER_CHANGE
;0.2
;_SET_FAN_SPEED_CHANGING_LAYER
SET_VELOCITY_LIMIT ACCEL=3700 ACCEL_TO_DECEL=1850
SET_VELOCITY_LIMIT SQUARE_CORNER_VELOCITY=9
; printing object Dock_Isolator.stl id:2 copy 0
SET_VELOCITY_LIMIT ACCEL=10000 ACCEL_TO_DECEL=5000 SQUARE_CORNER_VELOCITY=12
EXCLUDE_OBJECT_START NAME=Dock_Isolator.stl_id_2_copy_0
G1 X134.77 Y162.304 F27000
G1 Z.6
G1 Z.2
G1 E.6 F2100
SET_VELOCITY_LIMIT ACCEL=3700 ACCEL_TO_DECEL=1850 SQUARE_CORNER_VELOCITY=9
;TYPE:Inner wall
;WIDTH:0.52
G1 F3000
G1 X135.877 Y161.901 E.04441
G1 X137.299 Y160.708 E.06994
G1 X138.227 Y159.101 E.06994
G1 X138.549 Y157.273 E.06994
G1 X138.227 Y155.445 E.06994
G1 X137.299 Y153.838 E.06994
G1 X135.877 Y152.645 E.06994
G1 X134.133 Y152.011 E.06994
G1 X132.277 Y152.011 E.06994
G1 X130.533 Y152.645 E.06994
G1 X129.111 Y153.838 E.06994
G1 X128.183 Y155.445 E.06994
G1 X127.861 Y157.273 E.06994
G1 X128.183 Y159.101 E.06994
G1 X129.111 Y160.708 E.06994
G1 X130.533 Y161.901 E.06994
G1 X132.277 Y162.536 E.06994
G1 X134.133 Y162.536 E.06994
G1 X134.732 Y162.318 E.02403
SET_VELOCITY_LIMIT ACCEL=10000 ACCEL_TO_DECEL=5000 SQUARE_CORNER_VELOCITY=12
G1 X134.041 Y162.016 F27000
SET_VELOCITY_LIMIT ACCEL=3700 ACCEL_TO_DECEL=1850 SQUARE_CORNER_VELOCITY=9
;TYPE:Outer wall
G1 F3000
G1 X135.613 Y161.444 E.06303
G1 X136.894 Y160.369 E.06303
G1 X137.73 Y158.92 E.06303
G1 X138.021 Y157.273 E.06303
G1 X137.73 Y155.626 E.06303
G1 X136.894 Y154.178 E.06303
G1 X135.613 Y153.103 E.06303
G1 X134.041 Y152.531 E.06303
G1 X132.369 Y152.531 E.06303
G1 X130.797 Y153.103 E.06303
G1 X129.516 Y154.178 E.06303
G1 X128.68 Y155.626 E.06303
G1 X128.389 Y157.273 E.06303
G1 X128.68 Y158.92 E.06303
G1 X129.516 Y160.369 E.06303
G1 X130.797 Y161.444 E.06303
G1 X132.369 Y162.016 E.06303
G1 X134.001 Y162.016 E.06152
SET_VELOCITY_LIMIT ACCEL=10000 ACCEL_TO_DECEL=5000 SQUARE_CORNER_VELOCITY=12
G1 E-.42 F2700
;WIPE_START
G1 F3000
G1 X134.944 Y161.681 E-.18
;WIPE_END
G17
G3 Z.6 I-.805 J-.913 P1  F27000
G1 X132.654 Y163.7 Z.6
G1 Z.2
G1 E.6 F2100
SET_VELOCITY_LIMIT ACCEL=3700 ACCEL_TO_DECEL=1850 SQUARE_CORNER_VELOCITY=9
;TYPE:Inner wall
G1 F3000
G1 X132.408 Y163.685 E.00928
G3 X132.404 Y150.863 I.791 J-6.411 E.70491
M73 P1 R4
G3 X133.269 Y150.814 I.878 J7.889 E.03268
G3 X133.18 Y163.733 I-.071 J6.459 E.76284
G1 X132.694 Y163.702 E.01837
SET_VELOCITY_LIMIT ACCEL=10000 ACCEL_TO_DECEL=5000 SQUARE_CORNER_VELOCITY=12
G1 X133.136 Y164.252 F27000
SET_VELOCITY_LIMIT ACCEL=3700 ACCEL_TO_DECEL=1850 SQUARE_CORNER_VELOCITY=9
;TYPE:Outer wall
G1 F3000
G1 X132.758 Y164.24 E.01428
G3 X132.339 Y150.347 I.439 J-6.966 E.77742
G3 X133.281 Y150.294 I.939 J8.387 E.03556
G3 X133.178 Y164.254 I-.084 J6.979 E.8239
M73 P1 R3
G1 X133.176 Y164.253 E.00009
SET_VELOCITY_LIMIT ACCEL=10000 ACCEL_TO_DECEL=5000 SQUARE_CORNER_VELOCITY=12
G1 E-.42 F2700
;WIPE_START
G1 F3000
G1 X132.758 Y164.24 E-.07539
G1 X132.341 Y164.2 E-.07533
G1 X132.18 Y164.175 E-.02928
;WIPE_END
G17
G3 Z.6 I.877 J.844 P1  F27000
G1 X133.183 Y163.133 Z.6
G1 Z.2
G1 E.6 F2100
SET_VELOCITY_LIMIT ACCEL=3700 ACCEL_TO_DECEL=1850 SQUARE_CORNER_VELOCITY=9
;TYPE:Gap infill
;WIDTH:0.748954
G1 F5367.273
G2 X133.887 Y163.115 I.024 J-12.59 E.03931
;WIDTH:0.699693
G1 F5769.84
G2 X134.587 Y162.988 I-.012 J-2.067 E.03708
;WIDTH:0.747112
G1 F5381.311
G2 X135.914 Y162.498 I-3.398 J-11.253 E.07874
;WIDTH:0.691002
G1 F5847.213
G2 X136.231 Y162.337 I-.632 J-1.628 E.01822
;WIDTH:0.711194
G1 F5670.539
G1 X136.517 Y162.126 E.01877
;WIDTH:0.753374
G1 F5333.877
G2 X137.333 Y161.448 I-7.843 J-10.26 E.05953
;WIDTH:0.723001
G1 F5572.095
G1 X137.6 Y161.197 E.01972
;WIDTH:0.688187
G1 F5872.721
G1 X137.646 Y161.152 E.00329
G2 X137.82 Y160.939 I-.949 J-.949 E.01402
;WIDTH:0.719955
G1 F5597.165
G1 X138.017 Y160.639 E.01921
;WIDTH:0.751782
G1 F5345.855
G2 X138.581 Y159.65 I-17.493 J-10.637 E.06372
;WIDTH:0.698719
G1 F5778.409
G2 X138.814 Y159.063 I-1.941 J-1.11 E.03283
;WIDTH:0.728248
G1 F5529.434
G1 X138.894 Y158.718 E.0192
;WIDTH:0.752809
G1 F5338.124
G2 X139.069 Y157.677 I-13.705 J-2.84 E.0592
;WIDTH:0.706141
G1 F5713.746
G1 X139.106 Y157.329 E.01835
;WIDTH:0.698838
G1 F5777.364
G2 X139.069 Y156.874 I-2.245 J-.048 E.0237
;WIDTH:0.748401
G1 F5371.48
G2 X138.832 Y155.559 I-16.298 J2.254 E.07447
;WIDTH:0.693673
G1 F5823.216
G2 X138.704 Y155.145 I-3.687 J.921 E.02227
;WIDTH:0.715138
G1 F5637.272
G1 X138.544 Y154.823 E.01911
;WIDTH:0.75359
G1 F5332.256
G2 X138.017 Y153.908 I-12.438 J6.545 E.05929
;WIDTH:0.720202
G1 F5595.12
G1 X137.822 Y153.611 E.01899
;WIDTH:0.68796
G1 F5874.79
G2 X137.589 Y153.338 I-1.244 J.828 E.01834
;WIDTH:0.724318
G1 F5561.325
G2 X137.342 Y153.106 I-10.332 J10.739 E.01824
;WIDTH:0.752943
G1 F5337.117
G2 X136.517 Y152.42 I-8.894 J9.849 E.06017
;WIDTH:0.710979
G1 F5672.365
G1 X136.228 Y152.208 E.01894
;WIDTH:0.691309
G1 F5844.449
G2 X135.924 Y152.052 I-1.952 J3.441 E.0175
;WIDTH:0.731066
G1 F5506.789
G1 X135.588 Y151.91 E.01984
;WIDTH:0.752313
G1 F5341.855
G2 X134.587 Y151.558 I-4.798 J12.038 E.05945
;WIDTH:0.699616
G1 F5770.513
G2 X133.89 Y151.432 I-.711 J1.934 E.03693
;WIDTH:0.747352
G1 F5379.479
G2 X132.475 Y151.435 I-.685 J11.777 E.07877
;WIDTH:0.693617
G1 F5823.719
G2 X132.122 Y151.472 I.069 J2.318 E.01829
;WIDTH:0.707678
G1 F5700.534
G1 X131.778 Y151.572 E.0188
;WIDTH:0.753191
G1 F5335.252
G2 X130.781 Y151.927 I4.295 J13.632 E.05939
;WIDTH:0.727153
G1 F5538.286
G1 X130.455 Y152.066 E.01918
;WIDTH:0.688817
G1 F5866.997
G2 X130.141 Y152.237 I.569 J1.417 E.01825
;WIDTH:0.717309
G1 F5619.125
G1 X129.861 Y152.444 E.01857
;WIDTH:0.753482
G1 F5333.071
G2 X129.044 Y153.128 I8.079 J10.472 E.05982
;WIDTH:0.718769
G1 F5606.984
G1 X128.785 Y153.373 E.01902
;WIDTH:0.688499
G1 F5869.884
G2 X128.565 Y153.645 I1.529 J1.467 E.01789
;WIDTH:0.72544
G1 F5552.185
G1 X128.369 Y153.945 E.01932
;WIDTH:0.753197
G1 F5335.211
G2 X127.843 Y154.867 I11.196 J6.99 E.05956
;WIDTH:0.709837
G1 F5682.081
G1 X127.687 Y155.184 E.0186
;WIDTH:0.692385
G1 F5834.76
G2 X127.585 Y155.526 I1.771 J.715 E.01836
;WIDTH:0.747264
G1 F5380.146
G2 X127.335 Y156.919 I12.233 J2.916 E.07873
;WIDTH:0.718336
G1 F5610.579
G2 X127.301 Y157.273 I4.049 J.567 E.01901
;WIDTH:0.699773
G1 F5769.135
G2 X127.335 Y157.628 I4.082 J-.212 E.01849
;WIDTH:0.747262
G1 F5380.163
G1 X127.344 Y157.695 E.00379
